X:1
T:Élisabeth Jacquet de La Guerre (1665-1729) Sarabande de la Suite en la menor 
C:E. Jacquet de la Guerre
%%score { ( 1 4 ) | ( 2 3 ) }
L:1/8
M:3/4
K:C
V:1 treble nm="Piano" snm="Pno."
V:4 treble 
V:2 bass 
V:3 bass 
V:1
 Me2 Pc3 B | PA2 [EA]4 | Mf2 Pf3 e/f/ | e2 !arpeggio![ce]4 | Md2 d3 e | Pc2 !arpeggio![Ac]4 | %6
 Bc PA3 ^G/A/ | P^G6 :: [^GB]3 MB x2 | PA3 A !arpeggio![^FA]2 | d!turn!d x4 | PA3 G/A/ G2 | %12
 !arpeggio!g3 g [eg]2 | f3 e f2 | Pe3 (f d2) | Pd3 ^c Md2 | [^FAd]3 F MG2 | [E^G]3 A [EB]2 | %18
 [DE]3 E !arpeggio![FA]2 | PA3 ^G [EA]2 :| %20
V:2
 CD E2 D2 | CB,A,G,PF,E, | z2 A,2 B,2 | C2 G,2 MA,2- | A,2 ^G,4 | A,4 x2 | z2 C2 D2 | E,6 :: %8
"^Reprise" E,^F,^G,E, A,=G, | P^F,2 E,2 D,C, | D,2 G,2 A,>G, | ^F,2 D,4 | G,2 P!courtesy!=F,2 E,2 | %13
 A,4 x2 | G,2 A,2 B,2 | z2 A,2 D,2 | z2 C,2 z2 | B,,2 z A,, ^G,,/G,,/A,,/B,,/ | z2 C,4 | %19
 z2 E,2 A,,2 :| %20
V:3
 A,6 | x6 | D,6 | C,6 | B,,6 | A,,4 D,E, | F,6 | z2 z2 E,,2 :: x6 | x6 | B,,4 C,2 | D,2 D,,2 G,,2 | %12
 x6 | A,2 A,,2 D,2 | G,,6 | A,,4 D,2 | C,,4 B,,,2- | B,,,2 A,,,2 x2 | C,,4 D,,2 | E,,4 x2 :| %20
V:4
 x6 | z2 C4 | x6 | z2 G4 | z2 B4 | z2 E4 | D2 x4 | z E- [B,E]4 :: E3 B c2 | D3 ^C D2 | %10
 G2 ed P=c>B | x6 | [Bd]4 B2 | ^c4 d2 | B2 A2 G2 | x6 | D3 x3 | D3 C B,2 | B,3 A, C2 | B,3 D C2 :| %20

